src/photo/Logo.svg

<svg width="99" height="25" viewBox="0 0 99 25" fill="none" xmlns="http://www.w3.org/2000/svg">
<path fill-rule="evenodd" clip-rule="evenodd" d="M87.2413 11.1004C87.2413 11.1004 85.8812 13.7548 84.4239 15.0579H82.7724C81.3637 13.8031 79.955 11.1004 79.955 11.1004V19.4015H75.7775V7.09459H80.6351L83.5982 11.583L86.5613 7.09459H91.4188V19.4015H87.2413V11.1004ZM37.6459 9.84556C36.723 9.84556 35.3629 10.5695 35.12 11.3417C35.46 11.9691 36.7715 12.5 37.5973 12.4517C38.4717 12.4517 39.1031 11.9691 39.1031 11.1486C39.1031 10.3282 38.4717 9.84556 37.6459 9.84556ZM68.0055 9.84556C67.0826 9.84556 65.7224 10.5695 65.4796 11.3417C65.8196 11.9691 67.1311 12.5 67.9569 12.4517C68.8313 12.4517 69.4627 11.9691 69.4627 11.1486C69.4627 10.3282 68.8313 9.84556 68.0055 9.84556ZM22.2475 16.1197C20.5959 16.1197 19.1873 14.1409 18.9444 12.9344C19.1873 11.7278 20.5959 9.70077 22.2475 9.74903C23.8505 9.74903 24.5791 11.1486 24.5791 12.9344C24.5791 14.6718 23.8505 16.1197 22.2475 16.1197ZM52.5099 10.0869C50.8584 10.0869 49.4497 11.9208 49.2068 13.1274C49.4497 14.3822 50.8098 16.5058 52.5099 16.4575C54.1129 16.4575 54.8416 15.0579 54.8416 13.2722C54.8416 11.5347 54.1129 10.0869 52.5099 10.0869ZM38.666 16.4575C39.4918 16.4575 40.949 16.2645 41.4833 15.9749L43.2321 18.195C42.1148 19.112 39.5889 19.7394 37.9373 19.7394C33.517 19.7394 30.6996 17.0849 30.6996 13.1274C30.6996 9.21815 34.0027 6.56371 37.8402 6.56371C41.3862 6.56371 42.7949 8.88031 42.7949 10.9073C42.7949 13.417 40.6576 14.7201 38.2288 14.7201C37.0144 14.7201 35.8 14.3822 34.9257 13.6583C35.0714 15.2027 36.7715 16.4575 38.666 16.4575ZM69.0256 16.4575C69.8513 16.4575 71.3086 16.2645 71.8429 15.9749L73.5916 18.195C72.4744 19.112 69.9485 19.7394 68.2969 19.7394C63.8766 19.7394 61.0592 17.0849 61.0592 13.1274C61.0592 9.21815 64.3623 6.56371 68.1998 6.56371C71.7458 6.56371 73.1545 8.88031 73.1545 10.9073C73.1545 13.417 71.0172 14.7201 68.5884 14.7201C67.374 14.7201 66.1596 14.3822 65.2853 13.6583C65.431 15.2027 67.1311 16.4575 69.0256 16.4575ZM5.14899 19.7394C7.092 19.7394 8.59784 18.2915 8.59784 18.2915V19.0637C8.59784 20.9459 7.43203 21.9595 4.46893 21.9595C3.64315 21.9595 2.18589 21.5251 1.65156 21.2355L0.340027 23.2143C1.45726 24.1313 3.546 24.9517 5.58616 25C9.66649 25 12.4839 22.8282 12.4839 18.7741V7.09459H8.30638V13.5135C8.30638 15.444 7.23773 15.9266 6.16907 15.9266C5.10041 15.9266 4.17748 15.444 4.17748 13.5135V7.09459H0V14.3822C0 17.6641 1.60299 19.7394 5.14899 19.7394ZM59.019 12.9826C59.019 17.7124 55.8131 19.7394 52.8985 19.7394C51.5384 19.7394 50.4698 19.2085 49.7897 18.388V24.4691H45.6122V7.04633H47.9924C48.381 7.67375 48.6239 8.2529 48.8668 8.88031H49.0125C49.0125 8.88031 50.7612 6.56371 53.5786 6.56371C56.396 6.56371 59.019 8.78378 59.019 12.9826ZM23.6076 6.61197C20.7902 6.61197 19.2844 8.639 19.2844 8.639H19.1387C18.8472 6.51544 20.1102 5.21236 23.3162 4.92278C25.2106 4.72973 28.1737 3.81274 29.1938 2.75097L27.2022 0C25.6478 0.772201 23.9476 1.01351 21.8589 1.30309C19.3816 1.64093 14.8641 3.13707 14.8155 10.2317C14.8155 17.0849 18.5558 19.7876 22.1018 19.7876C25.5021 19.7876 28.708 17.1815 28.708 13.0309C28.708 8.83205 26.1821 6.61197 23.6076 6.61197ZM96.5192 15.1544C95.1591 15.1544 93.8961 16.8436 93.7018 17.9054C93.8961 18.9189 95.1105 20.6564 96.5192 20.6564C96.7621 20.6564 96.9564 20.6081 97.1507 20.5598C98.1222 20.2703 98.5594 19.1602 98.5594 17.9054C98.5594 16.5058 98.025 15.3475 96.8592 15.1544H96.5192Z" fill="#404040"/>
</svg>

<svg width="99" height="25" fill="none" xmlns="http://www.w3.org/2000/svg"><path fill-rule="evenodd" clip-rule="evenodd" d="M87.241 11.1s-1.36 2.655-2.817 3.958h-1.652c-1.408-1.255-2.817-3.958-2.817-3.958v8.301h-4.177V7.095h4.857l2.963 4.488 2.963-4.488h4.858V19.4H87.24v-8.3zM37.646 9.846c-.923 0-2.283.723-2.526 1.496.34.627 1.652 1.158 2.477 1.11.875 0 1.506-.483 1.506-1.303s-.631-1.303-1.457-1.303zm30.36 0c-.923 0-2.284.723-2.526 1.496.34.627 1.651 1.158 2.477 1.11.874 0 1.506-.483 1.506-1.303s-.632-1.303-1.457-1.303zM22.247 16.12c-1.652 0-3.06-1.98-3.304-3.186.243-1.206 1.652-3.233 3.303-3.185 1.604 0 2.332 1.4 2.332 3.185 0 1.738-.729 3.186-2.332 3.186zm30.262-6.033c-1.652 0-3.06 1.834-3.303 3.04.243 1.255 1.603 3.379 3.303 3.33 1.603 0 2.332-1.4 2.332-3.185 0-1.737-.73-3.185-2.332-3.185zm-13.844 6.37c.826 0 2.283-.192 2.817-.482l1.75 2.22c-1.118.917-3.644 1.544-5.296 1.544-4.42 0-7.237-2.654-7.237-6.612 0-3.909 3.303-6.563 7.14-6.563 3.546 0 4.955 2.316 4.955 4.343 0 2.51-2.137 3.813-4.566 3.813-1.215 0-2.429-.338-3.303-1.062.145 1.545 1.846 2.8 3.74 2.8zm30.36 0c.825 0 2.283-.192 2.817-.482l1.749 2.22c-1.118.917-3.644 1.544-5.295 1.544-4.42 0-7.238-2.654-7.238-6.612 0-3.909 3.303-6.563 7.14-6.563 3.547 0 4.956 2.316 4.956 4.343 0 2.51-2.138 3.813-4.567 3.813-1.214 0-2.428-.338-3.303-1.062.146 1.545 1.846 2.8 3.74 2.8zM5.149 19.74c1.943 0 3.449-1.448 3.449-1.448v.773c0 1.882-1.166 2.895-4.13 2.895-.825 0-2.282-.434-2.816-.724L.34 23.215c1.117.916 3.206 1.737 5.246 1.785 4.08 0 6.898-2.172 6.898-6.226V7.094H8.306v6.42c0 1.93-1.068 2.413-2.137 2.413s-1.992-.483-1.992-2.413v-6.42H0v7.288c0 3.282 1.603 5.357 5.149 5.357zm53.87-6.756c0 4.73-3.206 6.756-6.12 6.756-1.36 0-2.43-.53-3.11-1.351v6.081h-4.177V7.046h2.38c.389.628.632 1.207.875 1.834h.146s1.748-2.316 4.566-2.316c2.817 0 5.44 2.22 5.44 6.419zM23.608 6.612c-2.818 0-4.324 2.027-4.324 2.027h-.145c-.292-2.124.971-3.427 4.177-3.716 1.895-.193 4.858-1.11 5.878-2.172L27.202 0c-1.554.772-3.254 1.014-5.343 1.303-2.477.338-6.995 1.834-7.044 8.929 0 6.853 3.74 9.556 7.287 9.556 3.4 0 6.606-2.607 6.606-6.757 0-4.199-2.526-6.419-5.1-6.419zm72.911 8.542c-1.36 0-2.623 1.69-2.817 2.751.194 1.014 1.409 2.751 2.817 2.751.243 0 .437-.048.632-.096.971-.29 1.408-1.4 1.408-2.655 0-1.4-.534-2.558-1.7-2.75h-.34z" fill="#404040"/></svg>
